X:1
T:Lord, when I count thy mercies o’er
T:Lord, when I count thy mercies o’er - Amazement (James Shoubridge)
C:James Shoubridge
Z:Text: Isaac Watts
%%score [ 1 2 3 4 ]
L:1/8
M:3/4
K:G
V:1 treble nm="Soprano" snm="S."
V:2 treble nm="Alto" snm="A."
V:3 treble-8 transpose=-12 nm="Tenor" snm="T."
V:4 bass nm="Bass" snm="B."
V:1
"^Andante" d2 c2 B2 | (B2 A2) G2 | (G2 F2) (GA/B/) | (B2 A2) ^D2 | (E2 G2) B2 | (e2 EF) (GA) | %6
w: These on my|heart _ by|night _ I _ _|keep; _ How|kind, _ how|dear _ _ to _|
w: Lord, when I|count _ thy|mer- * cies _ _|o’er, _ They|strike _ me|with _ _ sur- *|
w: My flesh with|fear _ and|won- * der _ _|stands, _ The|pro- * duct|of _ _ thy _|
 B4 B2 | (B2 E2) c2 | (c2 F2) d2 | (d2 BG) (e>c) | (B2 A2) G2 | (G2 F2) G2 | (A>B c2) B2 | e4 d2 | %14
w: me! O|may _ the|hour _ that|ends _ _ my _|sleep _ Still|find _ my|thoughts _ _ with|thee, still|
w: prise: Not|all _ the|sands _ that|spread _ _ the _|shore _ To|e- * qual|num- * * bers|rise, to|
w: skill, And|hour- * ly|bles- * sings|from _ _ thy _|hands _ Thy|thoughts _ of|love _ _ re-|veal, thy|
 (d2 c2) B2 | (B>A G2) F2 | G4 |] %17
w: find _ my|thoughts _ _ with|thee.|
w: e- * qual|num- * * bers|rise.|
w: thoughts _ of|love _ _ re-|veal.|
V:2
 D2 D2 D2 | D4 D2 | D4 D2 | D4 (^DF) | (B,G, E,2) B,2 | (G,3 A,) (B,E) | (E2 ^D2) =D2 | E4 E2 | %8
w: These on my|heart by|night I|keep; How _|kind, _ _ how|dear _ to _|me! _ O|may the|
w: Lord, when I|count thy|mer- cies|o’er, They _|strike _ _ me|with _ sur- *|prise: _ Not|all the|
w: My flesh with|fear and|won- der|stands, The _|pro- * * duct|of _ thy _|skill, _ And|hour- ly|
 F4 F2 | G4 A2 | (G2 F2) D2 | D4 D2 | D4 G2 | G4 G2 | (G2 F2) G2 | (G>E D2) D2 | D4 |] %17
w: hour that|ends my|sleep _ Still|find my|thoughts with|thee, still|find _ my|thoughts _ _ with|thee.|
w: sands that|spread the|shore _ To|e- qual|num- bers|rise, to|e- * qual|num- * * bers|rise.|
w: bles- sings|from thy|hands _ Thy|thoughts of|love re-|veal, thy|thoughts _ of|love _ _ re-|veal.|
V:3
 B2 A2 G2 | (G2 F2) G2 | c4 (BA/G/) | (G2 F2) F2 | (GE B2) F2 | (G3 F) E2 | (G2 F2) G2 | G4 A2 | %8
w: These on my|heart _ by|night I _ _|keep; _ How|kind, _ _ how|dear _ to|me! _ O|may the|
w: Lord, when I|count _ thy|mer- cies _ _|o’er, _ They|strike _ _ me|with _ sur-|prise: _ Not|all the|
w: My flesh with|fear _ and|won- der _ _|stands, _ The|pro- * * duct|of _ thy|skill, _ And|hour- ly|
 A4 B2 | B4 (c>e) | d4 B2 | c4 B2 | (c>B A2) d2 | c4 d2 | d4 d2 | (d>c B2) (Ac) | (c2 B2) |] %17
w: hour that|ends my _|sleep Still|find my|thoughts _ _ with|thee, still|find my|thoughts _ _ with _|thee. _|
w: sands that|spread the _|shore To|e- qual|num- * * bers|rise, to|e- qual|num- * * bers _|rise. _|
w: bles- sings|from thy _|hands Thy|thoughts of|love _ _ re-|veal, thy|thoughts of|love _ _ re- *|veal. _|
V:4
 G,2"^65" F,2 G,2 |"^64" (D,2"^42" C,2)"^6" B,,2 |"^743""^6--" A,,4 G,,2 |"^64""^53" D,4"^#" B,,2 | %4
w: These on my|heart _ by|night I|keep; How|
w: Lord, when I|count _ thy|mer- cies|o’er, They|
w: My flesh with|fear _ and|won- der|stands, The|
 E,4"^6" D,2 | C,4"^7""^6" C,2 |"^64""^5#" B,,4 G,,2 |"^7""^5" C,4 A,,2 |"^7""^5" D,4 B,,2 | %9
w: kind, how|dear to|me! O|may the|hour that|
w: strike me|with sur-|prise: Not|all the|sands that|
w: pro- duct|of thy|skill, And|hour- ly|bles- sings|
"^7""^5" E,4 A,,2 |"^64""^53" D,4 G,2 |"^743""^6--" A,4 G,2 | %12
w: ends my|sleep Still|find my|
w: spread the|shore To|e- qual|
w: from thy|hands Thy|thoughts of|
"^Notes:Thomas Clark’s The Congregational Harmonist, or Clerk’s Companion was published in 32 numbered parts (eachconsisting of 18 pages), grouped into four books (eight parts per book). The pages are consecutively numberedthroughout the work as a whole. This setting appears in no. 32, which was listed in the 'Weekly List of NewPublications' on p64 of The Musical World, No. 82, Vol. 7, of 6 October 1837.This tune is attributed ‘J. Shoubridge’ in The Congregational Harmonist, and is marked with a crossed circle, asymbol used in that work to denote ‘originals’ (i.e. tunes not previously published).The order of parts in the source is Alto - Tenor - Air - Bass, with the Alto and Tenor parts given in the treble clef anoctave above sounding pitch.Only the first verse of the text is given in the source: subsequent verses have here been added editorially.""^65" F,4 G,2 | %13
w: thoughts with|
w: num- bers|
w: love re-|
 C4"^6" B,2 |"^74""^6-3" A,4 G,2 |"^6" (B,,>"^6"C,"^64" D,2)"^5""^7" D,2 |"^4""^3" G,,4 |] %17
w: thee, still|find my|thoughts _ _ with|thee.|
w: rise, to|e- qual|num- * * bers|rise.|
w: veal, thy|thoughts of|love _ _ re-|veal.|

